X:975
T:Reel 975
M:4/4
K:Gmaj
L:1/8
 (3def |g>G (3GGG G>B (3BAB |e>a (3fga e>A (3ABc |B>G (3GGG G>B (3BAB |cABA G2:|gf|g>f (3gGG d>G (3BAG |eaf (3gfg b>g (3gfg |e>A (3AAA a>A (3AAA |caag efedcA|g>G (3GGG G>G (3BAG |g>G (3gfg b2bg|e>c (3Bcd g2fg|agfa g2|
